X:235
T:Paddy on the Cellphone
M:4/4
L:1/8
R:reel
C:Wil Macaulay 1997
K:Bm
ED|~E3F G2FE|EEBE GFED|~E3F G2FE|1 BdcA BAFD:|BdcA B2Bc|
ddff edcB|c~e3 dcBA|BABc d~F3|BdcA B2Bc|
d~f3 edcB|c~e3 dcBA|BABc dAFd|AFDF E2||
